X:1
T:Title
T:Till Andrew Concert Valse
T:Walter Eriksson 3/83
C:Composer
%%score ( 1 2 )
L:1/8
Q:1/4=120
M:3/4
K:D
V:1 treble nm="Piano" snm="Pno."
V:2 treble 
V:1
S A2 |: [df]6 | (3([ce]fe) ^de gf | (3(efe) [Fd]4- | [Fd]4 d2 | [bd']6 | %6
w: |D|A7 * * * * * *|D * * *||G|
 [ac'][gb] [f^a][gb] [bd'][ac'] | (3([gb]c'[gb]) f2 e2 | ^d6 | e2 _e2 d2 | c6 |1 d2 _d2 =c2 | B6 | %13
w: |D * * * *|H7|Em * *|A7|||
 [GBe]4 [GBe]2 | [^GBe]4 e2 | [GAce]6- | [GAce]4 A2 :|2 d2 _d2 =c2 | B6 | [_Bd]6 | [Ac]6 | %21
w: |E7 *|A7||D7 * *|G|Gm|A7|
 [FAd]6- |O [FAd]2 z2 d2 |: (dB) g3 d | (bg) [bd']3 c' | (3([gb][ac'][gb]) [fa]2 [fa]2 |1 %26
w: D||G * * *|G * * Ddim|D * * * *|
 [fa]4 [gb]2 | [fa][eg] [eg]3 [fa] | [gb]3 [fa] [eg][fa] | (3([eg][fa][eg]) [df]2 [df]2 | %30
w: |Em * * *|A7 * * *|D * * * *|
 [df]4 d2 :|2 [^d^fa]4 b2 | ag b3 B | fa f2 e2 | [Fd]6- | [Fd]2 z2 A2 ||SO x2 x2"^Trio" F2 |] %37
w: |H7 *|Em * * *|A7 * * *|D|||
[K:Bb] G6 | F6 | E6- | E2 F2 G2 | A6 | G6 | F6- | F2 z2 z2 | [df]4 f2 |1 [d^fb]4 [ac']2 | B6 | %48
w: Bb|F|Gm|Eb * *|Cm||F7||Bb *||Eb|
 =B6 | c6 | B6 | A6- | A x x4 :|2 ^f6 | [egc']2 [egc']2 [egb]2 | [^cea]2 [cea]2 [ceg]2 | %56
w: G7|Cm||F7||D|Eb * *|Edim * *|
 [Bdg]2 f2 d2 | [Af]2 [Ge]2 [EA]2 | [DFB]6- | [DFB]2 z2 z2 |] %60
w: Bb * *|F7 * *|Bb||
V:2
 x2 |: x6 | x6 | x6 | x6 | x6 | x6 | x2 a4- | a4 b2 | g6- | g4 a2 |1 f6- | f4 g2 | x6 | x6 | x6 | %16
w: |||||||||||D|G *||||
 x6 :|2 f6- | f4 g2 | e6- | e4 f2 | x6 | x6 |: x6 | x6 | x6 |1 x6 | x6 | x6 | x6 | x6 :|2 x6 | x6 | %33
w: |||||||||||||||||
 x6 | x6 | x6 || x6 |][K:Bb] [Bd]4 [Bd]2 | [Af]4 [Af]2 | [GB][Ac] [Bd]4- | [Bd]2 c2 d2 | %41
w: ||||||||
 [ce]4 [ce]2 | [Bg]4 [Bg]2 | [Ac][Bd] [ce]4- | [ce]2 d2 e2 | x6 |1 x6 | [fa]3 [eg] [eg]2- | %48
w: |||||||
 [eg]2 g2 f2 | f3 e e2- | e2 e2 d2 | d3 c c2- | cF GA Bc :|2 [^ad']4 c'2 | x6 | x6 | x6 | x6 | x6 | %59
w: |||||||||||
 x6 |] %60
w: |

